envergo/static/images/reputation_dark.svg

<svg width="134" height="134" viewBox="0 0 133 132" fill="none" xmlns="http://www.w3.org/2000/svg">
<path fill-rule="evenodd" clip-rule="evenodd" d="M97.8341 125.4C96.9243 125.4 96.1841 124.66 96.1841 123.75C96.1841 122.84 96.9243 122.1 97.8341 122.1C98.7439 122.1 99.4841 122.84 99.4841 123.75C99.4841 124.66 98.7439 125.4 97.8341 125.4Z" fill="#CACAFB"/>
<path fill-rule="evenodd" clip-rule="evenodd" d="M111.034 19.8C110.124 19.8 109.384 19.0598 109.384 18.15C109.384 17.2401 110.124 16.5 111.034 16.5C111.944 16.5 112.684 17.2401 112.684 18.15C112.684 19.0598 111.944 19.8 111.034 19.8Z" fill="#CACAFB"/>
<path fill-rule="evenodd" clip-rule="evenodd" d="M15.3341 26.4C14.4243 26.4 13.6841 25.6598 13.6841 24.75C13.6841 23.8401 14.4243 23.1 15.3341 23.1C16.2439 23.1 16.9841 23.8401 16.9841 24.75C16.9841 25.6598 16.2439 26.4 15.3341 26.4Z" fill="#CACAFB"/>
<path d="M61.5341 37.95C61.5341 37.0387 60.7954 36.3 59.8841 36.3H40.0841L39.8917 36.3111C39.071 36.4064 38.4341 37.1038 38.4341 37.95C38.4341 38.8613 39.1728 39.6 40.0841 39.6H59.8841L60.0765 39.5889C60.8971 39.4936 61.5341 38.7962 61.5341 37.95Z" fill="#E1000F"/>
<path d="M56.5841 42.9C57.4954 42.9 58.2341 43.6387 58.2341 44.55C58.2341 45.3962 57.5971 46.0936 56.7765 46.1889L56.5841 46.2H40.0841C39.1728 46.2 38.4341 45.4613 38.4341 44.55C38.4341 43.7038 39.071 43.0064 39.8917 42.9111L40.0841 42.9H56.5841Z" fill="#E1000F"/>
<path d="M51.6341 51.15C51.6341 50.2387 50.8954 49.5 49.9841 49.5H40.0841L39.8917 49.5111C39.071 49.6064 38.4341 50.3038 38.4341 51.15C38.4341 52.0613 39.1728 52.8 40.0841 52.8H49.9841L50.1765 52.7889C50.9971 52.6936 51.6341 51.9962 51.6341 51.15Z" fill="#E1000F"/>
<path d="M53.284 19.8C64.5932 19.8 73.5591 26.4942 77.9151 37.3348C78.2548 38.1804 77.8448 39.1413 76.9992 39.481C76.1537 39.8208 75.1928 39.4108 74.853 38.5652C70.9784 28.9224 63.1802 23.1 53.284 23.1C39.615 23.1 28.534 34.181 28.534 47.85C28.534 53.1561 30.206 58.2058 33.2625 62.4031C33.65 62.9353 33.6806 63.6398 33.3583 64.1985L33.2378 64.3788L26.9286 72.6H36.784C37.6302 72.6 38.3276 73.237 38.4229 74.0576L38.434 74.25C38.434 75.0962 37.7971 75.7936 36.9765 75.8889L36.784 75.9H23.584C22.2782 75.9 21.5138 74.4703 22.1713 73.3964L22.275 73.2456L29.887 63.3237L29.7937 63.1857C26.9679 58.8666 25.3762 53.838 25.2431 48.5698L25.234 47.85C25.234 32.3584 37.7924 19.8 53.284 19.8Z" fill="#6A6AF4"/>
<path d="M78.034 46.2C96.2594 46.2 111.034 60.9746 111.034 79.2C111.034 84.3656 109.845 89.3647 107.592 93.8902C107.186 94.7059 106.195 95.038 105.379 94.6318C104.563 94.2256 104.231 93.2351 104.638 92.4193C106.665 88.3483 107.734 83.8522 107.734 79.2C107.734 62.7971 94.4369 49.5 78.034 49.5C61.6312 49.5 48.334 62.7971 48.334 79.2C48.334 95.4206 61.3373 108.604 77.4884 108.895L78.034 108.9H106.3L101.411 101.565C100.942 100.861 101.085 99.9276 101.715 99.3931L101.869 99.2771C102.573 98.8077 103.506 98.9509 104.041 99.5808L104.157 99.7347L110.757 109.635C111.453 110.679 110.773 112.061 109.569 112.19L109.384 112.2H78.034C59.8086 112.2 45.034 97.4254 45.034 79.2C45.034 60.9746 59.8086 46.2 78.034 46.2Z" fill="#6A6AF4"/>
<path d="M91.234 31.35C91.234 32.2598 91.9742 33 92.884 33C93.7938 33 94.534 32.2598 94.534 31.35C94.534 30.4401 93.7938 29.7 92.884 29.7C91.9742 29.7 91.234 30.4401 91.234 31.35Z" fill="#6A6AF4"/>
<path d="M99.484 33C98.5742 33 97.834 32.2598 97.834 31.35C97.834 30.4401 98.5742 29.7 99.484 29.7C100.394 29.7 101.134 30.4401 101.134 31.35C101.134 32.2598 100.394 33 99.484 33Z" fill="#6A6AF4"/>
<path d="M104.434 31.35C104.434 32.2598 105.174 33 106.084 33C106.994 33 107.734 32.2598 107.734 31.35C107.734 30.4401 106.994 29.7 106.084 29.7C105.174 29.7 104.434 30.4401 104.434 31.35Z" fill="#6A6AF4"/>
<path fill-rule="evenodd" clip-rule="evenodd" d="M112.684 23.1H86.284C85.3728 23.1 84.634 23.8387 84.634 24.75V37.95L84.6451 38.1424C84.7404 38.963 85.4379 39.6 86.284 39.6H98.7993L104.917 45.7167L105.057 45.8423C106.108 46.6908 107.734 45.9561 107.734 44.55V39.6H112.684C113.595 39.6 114.334 38.8613 114.334 37.95V24.75C114.334 23.8387 113.595 23.1 112.684 23.1ZM111.034 26.4V36.3H106.084L105.892 36.3111C105.071 36.4064 104.434 37.1038 104.434 37.95V40.5653L100.651 36.7833L100.487 36.64C100.201 36.4207 99.8487 36.3 99.484 36.3H87.934V26.4H111.034Z" fill="#6A6AF4"/>
<path d="M26.884 95.7C27.7953 95.7 28.534 96.4387 28.534 97.35C28.534 98.1962 27.8971 98.8936 27.0765 98.9889L26.884 99H20.284C19.3728 99 18.634 98.2613 18.634 97.35C18.634 96.5038 19.271 95.8064 20.0916 95.7111L20.284 95.7H26.884Z" fill="#6A6AF4"/>
<path d="M31.834 97.35C31.834 98.2598 32.5742 99 33.484 99C34.3938 99 35.134 98.2598 35.134 97.35C35.134 96.4401 34.3938 95.7 33.484 95.7C32.5742 95.7 31.834 96.4401 31.834 97.35Z" fill="#6A6AF4"/>
<path d="M40.084 99C39.1742 99 38.434 98.2598 38.434 97.35C38.434 96.4401 39.1742 95.7 40.084 95.7C40.9938 95.7 41.734 96.4401 41.734 97.35C41.734 98.2598 40.9938 99 40.084 99Z" fill="#6A6AF4"/>
<path d="M80.8618 65.4635C80.1134 63.1603 76.8549 63.1602 76.1065 65.4635L73.5776 73.2467L65.3939 73.2467C62.972 73.2467 61.9651 76.3457 63.9244 77.7693L70.5452 82.5795L68.0163 90.3627C67.2679 92.666 69.9041 94.5813 71.8634 93.1578L78.4841 88.3475L85.1049 93.1578C87.0642 94.5813 89.7004 92.666 88.952 90.3627L86.4231 82.5795L93.0439 77.7693C95.0032 76.3458 93.9962 73.2467 91.5744 73.2467L83.3907 73.2467L80.8618 65.4635ZM86.3108 82.234C86.3109 82.2343 86.311 82.2345 86.3111 82.2348L86.3108 82.234Z" stroke="#E1000F" stroke-width="3"/>
</svg>

<svg width="134" height="134" viewBox="0 0 133 132" fill="none" xmlns="http://www.w3.org/2000/svg"><path fill-rule="evenodd" clip-rule="evenodd" d="M97.834 125.4c-.91 0-1.65-.74-1.65-1.65 0-.91.74-1.65 1.65-1.65.91 0 1.65.74 1.65 1.65 0 .91-.74 1.65-1.65 1.65zm13.2-105.6c-.91 0-1.65-.74-1.65-1.65 0-.91.74-1.65 1.65-1.65.91 0 1.65.74 1.65 1.65 0 .91-.74 1.65-1.65 1.65zm-95.7 6.6c-.91 0-1.65-.74-1.65-1.65 0-.91.74-1.65 1.65-1.65.91 0 1.65.74 1.65 1.65 0 .91-.74 1.65-1.65 1.65z" fill="#CACAFB"/><path d="M61.534 37.95a1.65 1.65 0 00-1.65-1.65h-19.8l-.192.011a1.65 1.65 0 00.192 3.289h19.8l.193-.011a1.65 1.65 0 001.457-1.639zm-4.95 4.95a1.65 1.65 0 01.192 3.289l-.192.011h-16.5a1.65 1.65 0 01-.192-3.289l.192-.011h16.5zm-4.95 8.25a1.65 1.65 0 00-1.65-1.65h-9.9l-.192.011a1.65 1.65 0 00.192 3.289h9.9l.192-.011a1.65 1.65 0 001.458-1.639z" fill="#E1000F"/><path d="M53.284 19.8c11.31 0 20.275 6.694 24.631 17.535a1.65 1.65 0 01-3.062 1.23C70.978 28.922 63.18 23.1 53.284 23.1c-13.669 0-24.75 11.081-24.75 24.75a24.628 24.628 0 004.729 14.553 1.65 1.65 0 01.095 1.795l-.12.18-6.31 8.222h9.856a1.65 1.65 0 011.639 1.458l.011.192a1.65 1.65 0 01-1.457 1.639l-.193.011h-13.2c-1.306 0-2.07-1.43-1.413-2.504l.104-.15 7.612-9.922-.093-.138a27.912 27.912 0 01-4.55-14.616l-.01-.72c0-15.492 12.558-28.05 28.05-28.05z" fill="#6A6AF4"/><path d="M78.034 46.2c18.225 0 33 14.775 33 33a32.872 32.872 0 01-3.442 14.69 1.65 1.65 0 01-2.954-1.47 29.568 29.568 0 003.096-13.22c0-16.403-13.297-29.7-29.7-29.7s-29.7 13.297-29.7 29.7c0 16.22 13.003 29.404 29.154 29.695l.546.005H106.3l-4.889-7.335a1.65 1.65 0 01.304-2.172l.154-.116a1.65 1.65 0 012.172.304l.116.154 6.6 9.9c.696 1.044.016 2.426-1.188 2.555l-.185.01h-31.35c-18.225 0-33-14.775-33-33s14.775-33 33-33zm13.2-14.85c0 .91.74 1.65 1.65 1.65.91 0 1.65-.74 1.65-1.65 0-.91-.74-1.65-1.65-1.65-.91 0-1.65.74-1.65 1.65zm8.25 1.65c-.91 0-1.65-.74-1.65-1.65 0-.91.74-1.65 1.65-1.65.91 0 1.65.74 1.65 1.65 0 .91-.74 1.65-1.65 1.65zm4.95-1.65c0 .91.74 1.65 1.65 1.65.91 0 1.65-.74 1.65-1.65 0-.91-.74-1.65-1.65-1.65-.91 0-1.65.74-1.65 1.65z" fill="#6A6AF4"/><path fill-rule="evenodd" clip-rule="evenodd" d="M112.684 23.1h-26.4a1.65 1.65 0 00-1.65 1.65v13.2l.011.192a1.65 1.65 0 001.639 1.458h12.515l6.118 6.117.14.125c1.051.849 2.677.114 2.677-1.292V39.6h4.95a1.65 1.65 0 001.65-1.65v-13.2a1.65 1.65 0 00-1.65-1.65zm-1.65 3.3v9.9h-4.95l-.192.011a1.65 1.65 0 00-1.458 1.639v2.615l-3.783-3.782-.164-.143a1.649 1.649 0 00-1.003-.34h-11.55v-9.9h23.1z" fill="#6A6AF4"/><path d="M26.884 95.7a1.65 1.65 0 01.192 3.289l-.192.011h-6.6a1.65 1.65 0 01-.192-3.289l.192-.011h6.6zm4.95 1.65c0 .91.74 1.65 1.65 1.65.91 0 1.65-.74 1.65-1.65 0-.91-.74-1.65-1.65-1.65-.91 0-1.65.74-1.65 1.65zm8.25 1.65c-.91 0-1.65-.74-1.65-1.65 0-.91.74-1.65 1.65-1.65.91 0 1.65.74 1.65 1.65 0 .91-.74 1.65-1.65 1.65z" fill="#6A6AF4"/><path d="M80.862 65.463c-.749-2.303-4.007-2.303-4.755 0l-2.53 7.784h-8.183c-2.422 0-3.429 3.099-1.47 4.522l6.621 4.81-2.529 7.784c-.748 2.303 1.888 4.218 3.847 2.795l6.621-4.81 6.62 4.81c1.96 1.423 4.596-.492 3.848-2.795l-2.529-7.784 6.62-4.81c1.96-1.423.953-4.522-1.469-4.522h-8.183l-2.53-7.784zm5.449 16.771s0 0 0 0h0z" stroke="#E1000F" stroke-width="3"/></svg>
